X:1
T:Someday Soon
M:4/4
L:1/8
K:G
 G2 AB-B A3| G E2 E- E2 z B,| A,- G,2 G, G, D2 B,-| B,8| z4 FE FG|\
 A D3- D2 EF| G8| A8| G2 A2 B2 A G-| G2 E2 z2 B, D-| D4 B,D DE| B,4 B, D2 B,-|\
 B,2- A,2 E2 G E-| E D3 B, B,2 G,-| G,8| z4 z2 z G| G2 AB-B A3| G E2- E- E2 z B,|\
 A, G,2 G, G, D,2 B,-| B,8| z DF G F3 G| F D3- D2 EF| G8| A8| G2 A2 B2 A G-|\
 G2 E2 B,2 B,D| B,2 D2 D2 E2| B,4 B, D2 B,-| B,2- A,2 E2 G E-| E D3 B, B,2 G,-|\
 G,8| z AA G A2 B A-| A2 B2 B2 G2-| G2 DE GA B, D-| D8| z4 GE GA| GE G6-|\
 G2 AA A B2 A-| A6 B2| G3 A B2 A2| G- E2 B,- B,4| B,2 D2 D3 E| B,4 z2 G2|\
 F3 F F2 E F-| F6 D2| EF G6| A6 B2| G2 A B- B2 B2| G2 E E- E3 B,| B, D3 B,2 D2|\
 B,4 B, D2 B,-| B,2- A,2 E2 G E-| E D3 B, B,2 G,-| G,8|
